X: 32703
T: Polka D'Alfred Couillard
R: barndance
M: 4/4
K: Gmajor
D2 G>A B>G (3Bcd|(3cdc B2 B4|B2 A>B c>A (3EFG|(3ABA G2 (3FGF E2|
(3DDD G>A B>GB>d|c2 (3BcB B4|(3BcB A>B c>AF>G|A2 G2 G2:|
D2 D6|E2 D2 D4|B2 A>B c>A (3EFG|(3ABA (3GAG (3FGF (3EFE|
D2 D2 D2 (3AGF|(3EFE D>C D4|B2 A>B c>A (3EFG|(3ABA G2 G2:|

